Extract Metadata/presets/ay2.xmp

<x:xmpmeta xmlns:x="adobe:ns:meta/" x:xmptk="Adobe XMP Core 7.0-c000 1.000000, 0000/00/00-00:00:00        ">
 <rdf:RDF xmlns:rdf="http://www.w3.org/1999/02/22-rdf-syntax-ns#">
  <rdf:Description rdf:about=""
    xmlns:crs="http://ns.adobe.com/camera-raw-settings/1.0/"
   crs:PresetType="Normal"
   crs:Cluster=""
   crs:UUID="79B8F47C758149D1B15FAEAFB97A5341"
   crs:SupportsAmount2="True"
   crs:SupportsAmount="True"
   crs:SupportsColor="True"
   crs:SupportsMonochrome="True"
   crs:SupportsHighDynamicRange="True"
   crs:SupportsNormalDynamicRange="True"
   crs:SupportsSceneReferred="True"
   crs:SupportsOutputReferred="True"
   crs:RequiresRGBTables="False"
   crs:CameraModelRestriction=""
   crs:Copyright=""
   crs:ContactInfo=""
   crs:Version="15.5"
   crs:ProcessVersion="15.4"
   crs:Exposure2012="-0.10"
   crs:Contrast2012="+47"
   crs:Highlights2012="-51"
   crs:Shadows2012="+83"
   crs:Whites2012="+31"
   crs:Blacks2012="+29"
   crs:Texture="-4"
   crs:Clarity2012="-32"
   crs:Dehaze="-25"
   crs:Vibrance="+24"
   crs:Saturation="+2"
   crs:ParametricShadows="0"
   crs:ParametricDarks="0"
   crs:ParametricLights="0"
   crs:ParametricHighlights="0"
   crs:ParametricShadowSplit="25"
   crs:ParametricMidtoneSplit="50"
   crs:ParametricHighlightSplit="75"
   crs:Sharpness="32"
   crs:LuminanceSmoothing="0"
   crs:ColorNoiseReduction="25"
   crs:HueAdjustmentRed="+4"
   crs:HueAdjustmentOrange="-13"
   crs:HueAdjustmentYellow="0"
   crs:HueAdjustmentGreen="+3"
   crs:HueAdjustmentAqua="+49"
   crs:HueAdjustmentBlue="-20"
   crs:HueAdjustmentPurple="0"
   crs:HueAdjustmentMagenta="-3"
   crs:SaturationAdjustmentRed="-1"
   crs:SaturationAdjustmentOrange="-25"
   crs:SaturationAdjustmentYellow="-34"
   crs:SaturationAdjustmentGreen="-68"
   crs:SaturationAdjustmentAqua="-32"
   crs:SaturationAdjustmentBlue="-19"
   crs:SaturationAdjustmentPurple="-21"
   crs:SaturationAdjustmentMagenta="-17"
   crs:LuminanceAdjustmentRed="0"
   crs:LuminanceAdjustmentOrange="-2"
   crs:LuminanceAdjustmentYellow="0"
   crs:LuminanceAdjustmentGreen="-5"
   crs:LuminanceAdjustmentAqua="0"
   crs:LuminanceAdjustmentBlue="-4"
   crs:LuminanceAdjustmentPurple="+1"
   crs:LuminanceAdjustmentMagenta="+1"
   crs:SplitToningShadowHue="0"
   crs:SplitToningShadowSaturation="15"
   crs:SplitToningHighlightHue="195"
   crs:SplitToningHighlightSaturation="7"
   crs:SplitToningBalance="0"
   crs:ColorGradeMidtoneHue="0"
   crs:ColorGradeMidtoneSat="0"
   crs:ColorGradeShadowLum="0"
   crs:ColorGradeMidtoneLum="0"
   crs:ColorGradeHighlightLum="0"
   crs:ColorGradeBlending="100"
   crs:ColorGradeGlobalHue="0"
   crs:ColorGradeGlobalSat="0"
   crs:ColorGradeGlobalLum="0"
   crs:AutoLateralCA="1"
   crs:LensProfileEnable="0"
   crs:DefringePurpleAmount="0"
   crs:DefringePurpleHueLo="30"
   crs:DefringePurpleHueHi="70"
   crs:DefringeGreenAmount="0"
   crs:DefringeGreenHueLo="40"
   crs:DefringeGreenHueHi="60"
   crs:GrainAmount="0"
   crs:PostCropVignetteAmount="-18"
   crs:ShadowTint="0"
   crs:RedHue="+42"
   crs:RedSaturation="+27"
   crs:GreenHue="+32"
   crs:GreenSaturation="0"
   crs:BlueHue="-10"
   crs:BlueSaturation="0"
   crs:HDREditMode="0"
   crs:CurveRefineSaturation="100"
   crs:OverrideLookVignette="True"
   crs:ToneCurveName2012="Custom"
   crs:HasSettings="True">
   <crs:Name>
    <rdf:Alt>
     <rdf:li xml:lang="x-default">ay2</rdf:li>
    </rdf:Alt>
   </crs:Name>
   <crs:Group>
    <rdf:Alt>
     <rdf:li xml:lang="x-default">Solie</rdf:li>
    </rdf:Alt>
   </crs:Group>
     <crs:ToneCurvePV2012>
    <rdf:Seq>
     <rdf:li>1, 49</rdf:li>
     <rdf:li>69, 60</rdf:li>
     <rdf:li>111, 87</rdf:li>
     <rdf:li>182, 158</rdf:li>
     <rdf:li>254, 253</rdf:li>
    </rdf:Seq>
  </crs:ToneCurvePV2012>
  <crs:ToneCurvePV2012Red>
    <rdf:Seq>
     <rdf:li>0, 0</rdf:li>
     <rdf:li>37, 10</rdf:li>
     <rdf:li>82, 49</rdf:li>
     <rdf:li>126, 123</rdf:li>
     <rdf:li>180, 191</rdf:li>
     <rdf:li>255, 255</rdf:li>
    </rdf:Seq>
  </crs:ToneCurvePV2012Red>
  <crs:ToneCurvePV2012Green>
    <rdf:Seq>
     <rdf:li>0, 0</rdf:li>
     <rdf:li>33, 10</rdf:li>
     <rdf:li>74, 46</rdf:li>
     <rdf:li>125, 126</rdf:li>
     <rdf:li>177, 192</rdf:li>
     <rdf:li>255, 255</rdf:li>
    </rdf:Seq>
  </crs:ToneCurvePV2012Green>
  <crs:ToneCurvePV2012Blue>
    <rdf:Seq>
     <rdf:li>0, 0</rdf:li>
     <rdf:li>32, 9</rdf:li>
     <rdf:li>73, 46</rdf:li>
     <rdf:li>125, 121</rdf:li>
     <rdf:li>185, 201</rdf:li>
     <rdf:li>255, 255</rdf:li>
    </rdf:Seq>
  </crs:ToneCurvePV2012Blue>

   <crs:Look>
    <rdf:Description
     crs:Name="AdobeColor"
     crs:Amount="1"
     crs:Cluster="Adobe"
     crs:UUID="B952C231111CD8E0ECCF14B86BAA7077"
     crs:SupportsMonochrome="false"
     crs:Stubbed="true">
    <crs:Group>
     <rdf:Alt>
      <rdf:li xml:lang="x-default">Adobe Raw</rdf:li>
     </rdf:Alt>
    </crs:Group>
    </rdf:Description>
   </crs:Look>    
  </rdf:Description>
 </rdf:RDF>
</x:xmpmeta>
