Extract Metadata/presets/boot.xmp

<x:xmpmeta xmlns:x="adobe:ns:meta/" x:xmptk="Adobe XMP Core 7.0-c000 1.000000, 0000/00/00-00:00:00        ">
 <rdf:RDF xmlns:rdf="http://www.w3.org/1999/02/22-rdf-syntax-ns#">
  <rdf:Description rdf:about=""
    xmlns:crs="http://ns.adobe.com/camera-raw-settings/1.0/"
   crs:PresetType="Normal"
   crs:Cluster=""
   crs:UUID="79B8F47C758149D1B15FAEAFB97A5341"
   crs:SupportsAmount2="True"
   crs:SupportsAmount="True"
   crs:SupportsColor="True"
   crs:SupportsMonochrome="True"
   crs:SupportsHighDynamicRange="True"
   crs:SupportsNormalDynamicRange="True"
   crs:SupportsSceneReferred="True"
   crs:SupportsOutputReferred="True"
   crs:RequiresRGBTables="False"
   crs:CameraModelRestriction=""
   crs:Copyright=""
   crs:ContactInfo=""
   crs:Version="9.8"
   crs:ProcessVersion="6.7"
   crs:Exposure2012="+0.57"
   crs:Contrast2012="+11"
   crs:Highlights2012="-38"
   crs:Shadows2012="+13"
   crs:Whites2012="-66"
   crs:Blacks2012="+36"
   crs:Texture="0"
   crs:Clarity2012="+20"
   crs:Dehaze="+3"
   crs:Vibrance="0"
   crs:Saturation="-8"
   crs:ParametricShadows="0"
   crs:ParametricDarks="0"
   crs:ParametricLights="-32"
   crs:ParametricHighlights="-26"
   crs:ParametricShadowSplit="25"
   crs:ParametricMidtoneSplit="50"
   crs:ParametricHighlightSplit="75"
   crs:Sharpness="30"
   crs:LuminanceSmoothing="0"
   crs:ColorNoiseReduction="25"
   crs:HueAdjustmentRed="+10"
   crs:HueAdjustmentOrange="-8"
   crs:HueAdjustmentYellow="-12"
   crs:HueAdjustmentGreen="-60"
   crs:HueAdjustmentAqua="+29"
   crs:HueAdjustmentBlue="-3"
   crs:HueAdjustmentPurple="0"
   crs:HueAdjustmentMagenta="-3"
   crs:SaturationAdjustmentRed="0"
   crs:SaturationAdjustmentOrange="-21"
   crs:SaturationAdjustmentYellow="0"
   crs:SaturationAdjustmentGreen="-55"
   crs:SaturationAdjustmentAqua="-78"
   crs:SaturationAdjustmentBlue="-76"
   crs:SaturationAdjustmentPurple="-22"
   crs:SaturationAdjustmentMagenta="-15"
   crs:LuminanceAdjustmentRed="+10"
   crs:LuminanceAdjustmentOrange="+10"
   crs:LuminanceAdjustmentYellow="+7"
   crs:LuminanceAdjustmentGreen="-65"
   crs:LuminanceAdjustmentAqua="-71"
   crs:LuminanceAdjustmentBlue="-29"
   crs:LuminanceAdjustmentPurple="+1"
   crs:LuminanceAdjustmentMagenta="+1"
   crs:SplitToningShadowHue="0"
   crs:SplitToningShadowSaturation="0"
   crs:SplitToningHighlightHue="0"
   crs:SplitToningHighlightSaturation="0"
   crs:SplitToningBalance="0"
   crs:ColorGradeMidtoneHue="0"
   crs:ColorGradeMidtoneSat="0"
   crs:ColorGradeShadowLum="0"
   crs:ColorGradeMidtoneLum="0"
   crs:ColorGradeHighlightLum="0"
   crs:ColorGradeBlending="100"
   crs:ColorGradeGlobalHue="0"
   crs:ColorGradeGlobalSat="0"
   crs:ColorGradeGlobalLum="0"
   crs:AutoLateralCA="1"
   crs:LensProfileEnable="1"
   crs:DefringePurpleAmount="0"
   crs:DefringePurpleHueLo="30"
   crs:DefringePurpleHueHi="70"
   crs:DefringeGreenAmount="0"
   crs:DefringeGreenHueLo="40"
   crs:DefringeGreenHueHi="60"
   crs:GrainAmount="0"
   crs:PostCropVignetteAmount="0"
   crs:ShadowTint="0"
   crs:RedHue="+35"
   crs:RedSaturation="+36"
   crs:GreenHue="+45"
   crs:GreenSaturation="-15"
   crs:BlueHue="-15"
   crs:BlueSaturation="-10"
   crs:HDREditMode="0"
   crs:CurveRefineSaturation="100"
   crs:OverrideLookVignette="False"
   crs:ToneCurveName2012="Custom"
   crs:HasSettings="True">
   <crs:Name>
    <rdf:Alt>
     <rdf:li xml:lang="x-default">boot</rdf:li>
    </rdf:Alt>
   </crs:Name>
   <crs:Group>
    <rdf:Alt>
     <rdf:li xml:lang="x-default">imported</rdf:li>
    </rdf:Alt>
   </crs:Group>
     <crs:ToneCurve>
    <rdf:Seq>
     <rdf:li>0, 0</rdf:li>
     <rdf:li>32, 22</rdf:li>
     <rdf:li>64, 56</rdf:li>
     <rdf:li>128, 128</rdf:li>
     <rdf:li>192, 196</rdf:li>
     <rdf:li>255, 255</rdf:li>
    </rdf:Seq>
  </crs:ToneCurve>
  <crs:ToneCurveRed>
    <rdf:Seq>
     <rdf:li>0, 0</rdf:li>
     <rdf:li>255, 255</rdf:li>
    </rdf:Seq>
  </crs:ToneCurveRed>
  <crs:ToneCurveGreen>
    <rdf:Seq>
     <rdf:li>0, 0</rdf:li>
     <rdf:li>255, 255</rdf:li>
    </rdf:Seq>
  </crs:ToneCurveGreen>
  <crs:ToneCurveBlue>
    <rdf:Seq>
     <rdf:li>0, 0</rdf:li>
     <rdf:li>255, 255</rdf:li>
    </rdf:Seq>
  </crs:ToneCurveBlue>
  <crs:ToneCurvePV2012>
    <rdf:Seq>
     <rdf:li>0, 30</rdf:li>
     <rdf:li>40, 45</rdf:li>
     <rdf:li>69, 64</rdf:li>
     <rdf:li>175, 163</rdf:li>
     <rdf:li>255, 236</rdf:li>
    </rdf:Seq>
  </crs:ToneCurvePV2012>
  <crs:ToneCurvePV2012Red>
    <rdf:Seq>
     <rdf:li>0, 0</rdf:li>
     <rdf:li>38, 13</rdf:li>
     <rdf:li>81, 55</rdf:li>
     <rdf:li>123, 121</rdf:li>
     <rdf:li>176, 190</rdf:li>
     <rdf:li>255, 255</rdf:li>
    </rdf:Seq>
  </crs:ToneCurvePV2012Red>
  <crs:ToneCurvePV2012Green>
    <rdf:Seq>
     <rdf:li>0, 0</rdf:li>
     <rdf:li>36, 13</rdf:li>
     <rdf:li>79, 54</rdf:li>
     <rdf:li>123, 126</rdf:li>
     <rdf:li>187, 203</rdf:li>
     <rdf:li>255, 255</rdf:li>
    </rdf:Seq>
  </crs:ToneCurvePV2012Green>
  <crs:ToneCurvePV2012Blue>
    <rdf:Seq>
     <rdf:li>0, 0</rdf:li>
     <rdf:li>38, 13</rdf:li>
     <rdf:li>78, 55</rdf:li>
     <rdf:li>119, 120</rdf:li>
     <rdf:li>176, 197</rdf:li>
     <rdf:li>255, 255</rdf:li>
    </rdf:Seq>
  </crs:ToneCurvePV2012Blue>

   <crs:Look>
    <rdf:Description
     crs:Name="Adobe Standard"
    <crs:Group>
     <rdf:Alt>
      <rdf:li xml:lang="x-default">Adobe Raw</rdf:li>
     </rdf:Alt>
    </crs:Group>
    </rdf:Description>
   </crs:Look>
  </rdf:Description>
 </rdf:RDF>
</x:xmpmeta>
