Extract Metadata/presets/neon.xmp

<x:xmpmeta xmlns:x="adobe:ns:meta/" x:xmptk="Adobe XMP Core 7.0-c000 1.000000, 0000/00/00-00:00:00        ">
 <rdf:RDF xmlns:rdf="http://www.w3.org/1999/02/22-rdf-syntax-ns#">
  <rdf:Description rdf:about=""
    xmlns:crs="http://ns.adobe.com/camera-raw-settings/1.0/"
   crs:PresetType="Normal"
   crs:Cluster=""
   crs:UUID="79B8F47C758149D1B15FAEAFB97A5341"
   crs:SupportsAmount2="True"
   crs:SupportsAmount="True"
   crs:SupportsColor="True"
   crs:SupportsMonochrome="True"
   crs:SupportsHighDynamicRange="True"
   crs:SupportsNormalDynamicRange="True"
   crs:SupportsSceneReferred="True"
   crs:SupportsOutputReferred="True"
   crs:RequiresRGBTables="False"
   crs:CameraModelRestriction=""
   crs:Copyright=""
   crs:ContactInfo=""
   crs:Version="14.4"
   crs:ProcessVersion="11.0"
   crs:Exposure2012="+0.32"
   crs:Contrast2012="0"
   crs:Highlights2012="-4"
   crs:Shadows2012="+22"
   crs:Whites2012="-32"
   crs:Blacks2012="0"
   crs:Texture="+10"
   crs:Clarity2012="+14"
   crs:Dehaze="+10"
   crs:Vibrance="+46"
   crs:Saturation="-6"
   crs:ParametricShadows="0"
   crs:ParametricDarks="0"
   crs:ParametricLights="0"
   crs:ParametricHighlights="0"
   crs:ParametricShadowSplit="20"
   crs:ParametricMidtoneSplit="48"
   crs:ParametricHighlightSplit="75"
   crs:Sharpness="43"
   crs:LuminanceSmoothing="17"
   crs:ColorNoiseReduction="25"
   crs:HueAdjustmentRed="+46"
   crs:HueAdjustmentOrange="-38"
   crs:HueAdjustmentYellow="-31"
   crs:HueAdjustmentGreen="-2"
   crs:HueAdjustmentAqua="0"
   crs:HueAdjustmentBlue="0"
   crs:HueAdjustmentPurple="0"
   crs:HueAdjustmentMagenta="0"
   crs:SaturationAdjustmentRed="-34"
   crs:SaturationAdjustmentOrange="+14"
   crs:SaturationAdjustmentYellow="-27"
   crs:SaturationAdjustmentGreen="+31"
   crs:SaturationAdjustmentAqua="-31"
   crs:SaturationAdjustmentBlue="-24"
   crs:SaturationAdjustmentPurple="-37"
   crs:SaturationAdjustmentMagenta="-37"
   crs:LuminanceAdjustmentRed="0"
   crs:LuminanceAdjustmentOrange="0"
   crs:LuminanceAdjustmentYellow="0"
   crs:LuminanceAdjustmentGreen="0"
   crs:LuminanceAdjustmentAqua="+30"
   crs:LuminanceAdjustmentBlue="+38"
   crs:LuminanceAdjustmentPurple="0"
   crs:LuminanceAdjustmentMagenta="0"
   crs:SplitToningShadowHue="219"
   crs:SplitToningShadowSaturation="7"
   crs:SplitToningHighlightHue="176"
   crs:SplitToningHighlightSaturation="0"
   crs:SplitToningBalance="-18"
   crs:ColorGradeMidtoneHue="0"
   crs:ColorGradeMidtoneSat="0"
   crs:ColorGradeShadowLum="0"
   crs:ColorGradeMidtoneLum="0"
   crs:ColorGradeHighlightLum="0"
   crs:ColorGradeBlending="100"
   crs:ColorGradeGlobalHue="0"
   crs:ColorGradeGlobalSat="0"
   crs:ColorGradeGlobalLum="0"
   crs:AutoLateralCA="0"
   crs:LensProfileEnable="0"
   crs:DefringePurpleAmount="0"
   crs:DefringePurpleHueLo="30"
   crs:DefringePurpleHueHi="70"
   crs:DefringeGreenAmount="0"
   crs:DefringeGreenHueLo="40"
   crs:DefringeGreenHueHi="60"
   crs:GrainAmount="0"
   crs:PostCropVignetteAmount="0"
   crs:ShadowTint="0"
   crs:RedHue="+20"
   crs:RedSaturation="+8"
   crs:GreenHue="+29"
   crs:GreenSaturation="-18"
   crs:BlueHue="-27"
   crs:BlueSaturation="-43"
   crs:HDREditMode="0"
   crs:CurveRefineSaturation="100"
   crs:OverrideLookVignette="False"
   crs:ToneCurveName2012="Custom"
   crs:HasSettings="True">
   <crs:Name>
    <rdf:Alt>
     <rdf:li xml:lang="x-default">neon</rdf:li>
    </rdf:Alt>
   </crs:Name>
   <crs:Group>
    <rdf:Alt>
     <rdf:li xml:lang="x-default">chris</rdf:li>
    </rdf:Alt>
   </crs:Group>
     <crs:ToneCurvePV2012>
    <rdf:Seq>
     <rdf:li>1, 39</rdf:li>
     <rdf:li>50, 59</rdf:li>
     <rdf:li>147, 149</rdf:li>
     <rdf:li>212, 213</rdf:li>
     <rdf:li>255, 245</rdf:li>
    </rdf:Seq>
  </crs:ToneCurvePV2012>
  <crs:ToneCurvePV2012Red>
    <rdf:Seq>
     <rdf:li>0, 0</rdf:li>
     <rdf:li>83, 62</rdf:li>
     <rdf:li>114, 116</rdf:li>
     <rdf:li>255, 255</rdf:li>
    </rdf:Seq>
  </crs:ToneCurvePV2012Red>
  <crs:ToneCurvePV2012Green>
    <rdf:Seq>
     <rdf:li>0, 0</rdf:li>
     <rdf:li>77, 57</rdf:li>
     <rdf:li>116, 121</rdf:li>
     <rdf:li>176, 202</rdf:li>
     <rdf:li>255, 255</rdf:li>
    </rdf:Seq>
  </crs:ToneCurvePV2012Green>
  <crs:ToneCurvePV2012Blue>
    <rdf:Seq>
     <rdf:li>0, 0</rdf:li>
     <rdf:li>66, 50</rdf:li>
     <rdf:li>113, 118</rdf:li>
     <rdf:li>175, 207</rdf:li>
     <rdf:li>255, 255</rdf:li>
    </rdf:Seq>
  </crs:ToneCurvePV2012Blue>

   <crs:Look>
    <rdf:Description
     crs:Name="Adobe Standard"
    <crs:Group>
     <rdf:Alt>
      <rdf:li xml:lang="x-default">Adobe Raw</rdf:li>
     </rdf:Alt>
    </crs:Group>
    
    </rdf:Description>
   </crs:Look>
  </rdf:Description>
 </rdf:RDF>
</x:xmpmeta>
