Extract Metadata/presets/watch.xmp

<x:xmpmeta xmlns:x="adobe:ns:meta/" x:xmptk="Adobe XMP Core 7.0-c000 1.000000, 0000/00/00-00:00:00        ">
 <rdf:RDF xmlns:rdf="http://www.w3.org/1999/02/22-rdf-syntax-ns#">
  <rdf:Description rdf:about=""
    xmlns:crs="http://ns.adobe.com/camera-raw-settings/1.0/"
   crs:PresetType="Normal"
   crs:Cluster=""
   crs:UUID="79B8F47C758149D1B15FAEAFB97A5341"
   crs:SupportsAmount2="True"
   crs:SupportsAmount="True"
   crs:SupportsColor="True"
   crs:SupportsMonochrome="True"
   crs:SupportsHighDynamicRange="True"
   crs:SupportsNormalDynamicRange="True"
   crs:SupportsSceneReferred="True"
   crs:SupportsOutputReferred="True"
   crs:RequiresRGBTables="False"
   crs:CameraModelRestriction=""
   crs:Copyright=""
   crs:ContactInfo=""
   crs:Version="14.4"
   crs:ProcessVersion="11.0"
   crs:Exposure2012="0.00"
   crs:Contrast2012="+37"
   crs:Highlights2012="-91"
   crs:Shadows2012="+11"
   crs:Whites2012="-25"
   crs:Blacks2012="-48"
   crs:Texture="0"
   crs:Clarity2012="-5"
   crs:Dehaze="0"
   crs:Vibrance="+9"
   crs:Saturation="Normal"
   crs:ParametricShadows="0"
   crs:ParametricDarks="0"
   crs:ParametricLights="0"
   crs:ParametricHighlights="0"
   crs:ParametricShadowSplit="25"
   crs:ParametricMidtoneSplit="50"
   crs:ParametricHighlightSplit="75"
   crs:Sharpness="Normal"
   crs:LuminanceSmoothing="20"
   crs:ColorNoiseReduction="50"
   crs:HueAdjustmentRed="+10"
   crs:HueAdjustmentOrange="-5"
   crs:HueAdjustmentYellow="-20"
   crs:HueAdjustmentGreen="+10"
   crs:HueAdjustmentAqua="0"
   crs:HueAdjustmentBlue="-15"
   crs:HueAdjustmentPurple="0"
   crs:HueAdjustmentMagenta="0"
   crs:SaturationAdjustmentRed="0"
   crs:SaturationAdjustmentOrange="+20"
   crs:SaturationAdjustmentYellow="-20"
   crs:SaturationAdjustmentGreen="-35"
   crs:SaturationAdjustmentAqua="-25"
   crs:SaturationAdjustmentBlue="-42"
   crs:SaturationAdjustmentPurple="0"
   crs:SaturationAdjustmentMagenta="-30"
   crs:LuminanceAdjustmentRed="+5"
   crs:LuminanceAdjustmentOrange="+15"
   crs:LuminanceAdjustmentYellow="+15"
   crs:LuminanceAdjustmentGreen="-20"
   crs:LuminanceAdjustmentAqua="0"
   crs:LuminanceAdjustmentBlue="-20"
   crs:LuminanceAdjustmentPurple="0"
   crs:LuminanceAdjustmentMagenta="0"
   crs:SplitToningShadowHue="37"
   crs:SplitToningShadowSaturation="3"
   crs:SplitToningHighlightHue="37"
   crs:SplitToningHighlightSaturation="6"
   crs:SplitToningBalance="0"
   crs:ColorGradeMidtoneHue="0"
   crs:ColorGradeMidtoneSat="0"
   crs:ColorGradeShadowLum="0"
   crs:ColorGradeMidtoneLum="0"
   crs:ColorGradeHighlightLum="0"
   crs:ColorGradeBlending="50"
   crs:ColorGradeGlobalHue="0"
   crs:ColorGradeGlobalSat="0"
   crs:ColorGradeGlobalLum="0"
   crs:AutoLateralCA="0"
   crs:LensProfileEnable="1"
   crs:DefringePurpleAmount="0"
   crs:DefringePurpleHueLo="30"
   crs:DefringePurpleHueHi="70"
   crs:DefringeGreenAmount="0"
   crs:DefringeGreenHueLo="40"
   crs:DefringeGreenHueHi="60"
   crs:GrainAmount="0"
   crs:PostCropVignetteAmount="0"
   crs:ShadowTint="0"
   crs:RedHue="+30"
   crs:RedSaturation="-10"
   crs:GreenHue="+50"
   crs:GreenSaturation="-10"
   crs:BlueHue="-12"
   crs:BlueSaturation="-15"
   crs:HDREditMode="0"
   crs:CurveRefineSaturation="100"
   crs:OverrideLookVignette="False"
   crs:ToneCurveName2012="Custom"
   crs:HasSettings="True">
   <crs:Name>
    <rdf:Alt>
     <rdf:li xml:lang="x-default">watch</rdf:li>
    </rdf:Alt>
   </crs:Name>
   <crs:Group>
    <rdf:Alt>
     <rdf:li xml:lang="x-default">chris</rdf:li>
    </rdf:Alt>
   </crs:Group>
     <crs:ToneCurvePV2012>
    <rdf:Seq>
     <rdf:li>0, 11</rdf:li>
     <rdf:li>67, 58</rdf:li>
     <rdf:li>98, 100</rdf:li>
     <rdf:li>132, 145</rdf:li>
     <rdf:li>226, 237</rdf:li>
     <rdf:li>255, 255</rdf:li>
    </rdf:Seq>
  </crs:ToneCurvePV2012>
  <crs:ToneCurvePV2012Red>
    <rdf:Seq>
     <rdf:li>0, 0</rdf:li>
     <rdf:li>133, 124</rdf:li>
     <rdf:li>255, 255</rdf:li>
    </rdf:Seq>
  </crs:ToneCurvePV2012Red>
  <crs:ToneCurvePV2012Green>
    <rdf:Seq>
     <rdf:li>0, 0</rdf:li>
     <rdf:li>62, 56</rdf:li>
     <rdf:li>255, 255</rdf:li>
    </rdf:Seq>
  </crs:ToneCurvePV2012Green>
  <crs:ToneCurvePV2012Blue>
    <rdf:Seq>
     <rdf:li>0, 0</rdf:li>
     <rdf:li>188, 183</rdf:li>
     <rdf:li>255, 255</rdf:li>
    </rdf:Seq>
  </crs:ToneCurvePV2012Blue>

   <crs:Look>
    <rdf:Description
     crs:Name="Adobe Standard"
    <crs:Group>
     <rdf:Alt>
      <rdf:li xml:lang="x-default">Adobe Raw</rdf:li>
     </rdf:Alt>
    </crs:Group>
    
 <crs:Look>
    <rdf:Description
     crs:Name="AdobeColor"
     crs:Amount="1"
     crs:Cluster="Adobe"
     crs:UUID="B952C231111CD8E0ECCF14B86BAA7077"
     crs:SupportsMonochrome="false"
     crs:Stubbed="true">
    <crs:Group>
     <rdf:Alt>
      <rdf:li xml:lang="x-default">Adobe Raw</rdf:li>
     </rdf:Alt>
    </crs:Group>
    </rdf:Description>
   </crs:Look>    

    </rdf:Description>
   </crs:Look>
  </rdf:Description>
 </rdf:RDF>
</x:xmpmeta>
